osm_icons/filtered/photo.svg

<?xml version="1.0" encoding="UTF-8" standalone="no"?>
<svg
   xmlns:dc="http://purl.org/dc/elements/1.1/"
   xmlns:cc="http://creativecommons.org/ns#"
   xmlns:rdf="http://www.w3.org/1999/02/22-rdf-syntax-ns#"
   xmlns:svg="http://www.w3.org/2000/svg"
   xmlns="http://www.w3.org/2000/svg"
   xmlns:sodipodi="http://sodipodi.sourceforge.net/DTD/sodipodi-0.dtd"
   xmlns:inkscape="http://www.inkscape.org/namespaces/inkscape"
   height="14"
   width="14"
   version="1.1"
   id="svg6837"
   sodipodi:docname="photo.svg"
   inkscape:version="1.0.1 (c497b03c, 2020-09-10)">
  <metadata
     id="metadata6843">
    <rdf:RDF>
      <cc:Work
         rdf:about="">
        <dc:format>image/svg+xml</dc:format>
        <dc:type
           rdf:resource="http://purl.org/dc/dcmitype/StillImage" />
      </cc:Work>
    </rdf:RDF>
  </metadata>
  <defs
     id="defs6841" />
  <sodipodi:namedview
     pagecolor="#ffffff"
     bordercolor="#666666"
     borderopacity="1"
     objecttolerance="10"
     gridtolerance="10"
     guidetolerance="10"
     inkscape:pageopacity="0"
     inkscape:pageshadow="2"
     inkscape:window-width="1792"
     inkscape:window-height="956"
     id="namedview6839"
     showgrid="false"
     inkscape:zoom="52.5"
     inkscape:cx="6.9238095"
     inkscape:cy="8.6417366"
     inkscape:window-x="0"
     inkscape:window-y="25"
     inkscape:window-maximized="1"
     inkscape:current-layer="svg6837" />
  <path
     id="path7427"
     style="stroke:none;stroke-width:0;stroke-miterlimit:4;stroke-dasharray:none"
     d="M 13.019531,0 10.060547,0.00976563 C 9.0005469,-2.34375e-4 9,4.6875e-4 9,0.98046875 L 8.9804688,3.5898438 14.009766,3.5703125 14.029297,0.86914062 C 13.999297,-8.59375e-4 13.999531,0 13.019531,0 Z M 13.009766,1.0097656 13.050781,3 10.130859,3.0195312 10.099609,1.0292969 Z"
     sodipodi:nodetypes="cccccccccccc" />
  <path
     id="path7425"
     style="stroke:none;stroke-width:0;stroke-miterlimit:4;stroke-dasharray:none"
     d="M 1.9003906 3.9804688 C 0.000390625 4.0004687 -2.9605947e-16 4.2002344 0 5.9902344 L 0.01953125 12.029297 C -0.00046875 13.999297 -0.0003125 13.999063 1.9296875 14.039062 L 12.050781 14 C 14.000781 14 14.000781 14.000469 14.050781 11.980469 L 14.050781 6 C 14.000781 4 14.000781 4.0002344 12.050781 3.9902344 L 1.9003906 3.9804688 z M 8 5.0195312 A 4 4 0 0 1 8 13.019531 A 4 4 0 0 1 8 5.0195312 z M 7.9296875 6.5410156 A 2.5 2.5 0 0 0 5.5 9.0390625 A 2.5 2.5 0 0 0 10.5 9.0390625 A 2.5 2.5 0 0 0 7.9296875 6.5410156 z " />
  <path
     style="stroke:none;stroke-width:0;stroke-miterlimit:4;stroke-dasharray:none"
     d="M 1.05,3.52 4.03,3.49 C 4,3 4,2 3.01,1.98 H 1.98 C 1,2 1,3 1.05,3.52 Z"
     id="path7423"
     sodipodi:nodetypes="ccccc" />
</svg>

<svg xmlns="http://www.w3.org/2000/svg" height="14" width="14"><path d="m1.9,3.98C0,4,0,4.2,0,5.99l.02,6.04C0,14,0,14,1.93,14.04l10.12-.04C14,14,14,14,14.05,11.98V6C14,4,14,4,12.05,3.99zM8,5.02a4,4,0,110,8,4,4,0,010-8zM1.98,1.98h1.03C4,2,4,3,4.03,3.49l-2.98.03C1,3,1,2,1.98,1.98zm8.52,7.06a2.5,2.5,0,11-5,0,2.5,2.5,0,015,0zM9,.98l-.02,2.61,5.03-.02.02-2.7C14,0,14,0,13.02,0l-2.96.01C9,0,9,0,9,.98zm1.1.05,2.91-.02L13.05,3l-2.92.02z"/></svg>
